X: 7381
T: Clips Of Mohair, The
R: reel
M: 4/4
K: Adorian
|:eaag bgag|eaaf gfed|~c3A BBAG|EFGA Bcdg|
eaag bgag|eaaf gfed|~c3A BBAG|EFGB A4:|
|:~e3d dBAd|efed dBAB|G2BG dGBd|GABd d^cdf|
[1(3efe ed dBAd|egfd edBA|GABd dBAG|EFGB A4:|
[2efe^c cddB|~c3A BBAG|EFGA BBAG|EFGA Bcdf||

